X: 1
T: Rocky Road to Dublin
C:
R: reel
Z: 2013 John Chambers <jc:trillian.mit.edu>
M: C|
L: 1/8
K: Amix
e2- |\
"A"e2e2 c4 | ABAG EGED | "C"=CCC2 GAGD | =CCC2 G2e2- |
"A"e2e2 c4 | ABAG EGED | "C"=CCC2 GAG2 | "A"cA3 A2 :|
|: e2- |\
"A"edeg abag | edeg abag | "G"edef gagf | edef g2e2 |
"A"a3a- abag | egab a3g | "G"edef gage | "C"=c6 :|
